**kern	**silbe	**kern	**silbe	**harmony	**phrase	**leadinstrument	**rhyme	**timestamp	**harte
*ICvox	*	*ICvox	*	*M4/4	*	*	*	*	*M4/4
*VRlead	*	*VRresponse	*	*	*	*	*	*	*
*Hstimme	*	*Nstimme	*	*	*	*	*	*	*
*b:	*	*b:	*	*b:	*b:	*b:	*	*b:	*b:
*M4/4	*	*M4/4	*	*	*	*	*	*	*
*clefF4	*	*clefG2	*	*	*	*	*	*	*
r;	.	r;	.	1r;	.	r	.	0	N.C.
=1	=1	=1	=1	=1	=1	=1	=1	=1	=1
*>Label>Intro	*>Label>Intro	*>Label>Intro	*>Label>Intro	*>Label>Intro	*>Label>Intro	*>Label>Intro	*>Label>Intro	*>Label>Intro	*>Label>Intro
1r	.	1r	.	1Bm	newline	r	.	2.001	B:min (B D F#)
=2	=2	=2	=2	=2	=2	=2	=2	=2	=2
1r	.	1r	.	1Bm	.	r	.	3.63	B:min
=3	=3	=3	=3	=3	=3	=3	=3	=3	=3
1r	.	1r	.	1Bm	.	r	.	5.26	B:min
=4	=4	=4	=4	=4	=4	=4	=4	=4	=4
1r	.	1r	.	1Bm	.	r	.	6.889	B:min
=5	=5	=5	=5	=5	=5	=5	=5	=5	=5
1r	.	1r	.	1Bm	newline	guitar	.	8.519	B:min
=6	=6	=6	=6	=6	=6	=6	=6	=6	=6
1r	.	1r	.	1Bm	.	guitar	.	10.136	B:min
=7	=7	=7	=7	=7	=7	=7	=7	=7	=7
1r	.	1r	.	1EM	.	guitar	.	11.753	E:maj
=8	=8	=8	=8	=8	=8	=8	=8	=8	=8
1r	.	1r	.	1DM	.	guitar	.	13.37	D:maj
=9	=9	=9	=9	=9	=9	=9	=9	=9	=9
1r	.	1r	.	1Bm	newline	guitar	.	14.987	B:min
=10	=10	=10	=10	=10	=10	=10	=10	=10	=10
1r	.	1r	.	1Bm	.	guitar	.	16.627	B:min
=11	=11	=11	=11	=11	=11	=11	=11	=11	=11
1r	.	1r	.	1DM	.	guitar	.	18.267	D:maj
=12	=12	=12	=12	=12	=12	=12	=12	=12	=12
1r	.	1r	.	1EM	.	guitar	.	19.906	E:maj
=13	=13	=13	=13	=13	=13	=13	=13	=13	=13
1r	.	1r	.	1Bmm	newline	guitar	.	21.546	B:min7
=14	=14	=14	=14	=14	=14	=14	=14	=14	=14
1r	.	1r	.	1Bmm	.	guitar	.	23.173	B:min7
=15	=15	=15	=15	=15	=15	=15	=15	=15	=15
1r	.	1r	.	1Bm	.	guitar	.	24.801	B:min
=16	=16	=16	=16	=16	=16	=16	=16	=16	=16
1r	.	1r	.	1Bm	.	guitar	.	26.428	B:min
=17	=17	=17	=17	=17	=17	=17	=17	=17	=17
*>Letter>A	*>Letter>A	*>Letter>A	*>Letter>A	*>Letter>A	*>Letter>A	*>Letter>A	*>Letter>A	*>Letter>A	*>Letter>A
*>Label>Verse	*>Label>Verse	*>Label>Verse	*>Label>Verse	*>Label>Verse	*>Label>Verse	*>Label>Verse	*>Label>Verse	*>Label>Verse	*>Label>Verse
4BB	Hey	1r	.	1Bm	newline	voice	.	28.056	B:5
8D	li-	.	.	.	.	.	.	.	.
8D	-ttle	.	.	.	.	.	.	.	.
4F#	sis-	.	.	.	.	.	.	.	.
8F#	-ter	.	.	.	.	.	.	.	.
[8BB	what	.	.	.	.	.	.	.	.
=18	=18	=18	=18	=18	=18	=18	=18	=18	=18
8BB]	_	1r	.	1Bm	.	voice	.	29.692	B:5
4D	have	.	.	.	.	.	.	.	.
4F#	you	.	.	.	.	.	.	.	.
[4.E	done?.	.	.	.	.	.	A	.	.
=19	=19	=19	=19	=19	=19	=19	=19	=19	=19
2E]	_	1r	.	1AM	.	voice	.	31.328	A:5
2r	.	.	.	.	.	.	.	.	.
=20	=20	=20	=20	=20	=20	=20	=20	=20	=20
1r	.	1r	.	1EM	.	voice	.	32.965	E:5
=21	=21	=21	=21	=21	=21	=21	=21	=21	=21
4BB	Hey	1r	.	1Bm	newline	voice	.	34.601	B:5
8D	li-	.	.	.	.	.	.	.	.
8D	-ttle	.	.	.	.	.	.	.	.
4F#	sis-	.	.	.	.	.	.	.	.
8F#	-ter	.	.	.	.	.	.	.	.
[8A	who's	.	.	.	.	.	.	.	.
=22	=22	=22	=22	=22	=22	=22	=22	=22	=22
8A]	_	1r	.	1Bm	.	voice	.	36.224	B:5
4F#	the	.	.	.	.	.	.	.	.
4E	on-	.	.	.	.	.	.	.	.
8F#	-ly	.	.	.	.	.	.	.	.
[4F#	one?.	.	.	.	.	.	A	.	.
=23	=23	=23	=23	=23	=23	=23	=23	=23	=23
2F#]	_	1r	.	1AM	.	voice	.	37.847	A:5
2r	.	.	.	.	.	.	.	.	.
=24	=24	=24	=24	=24	=24	=24	=24	=24	=24
1r	.	1r	.	1EM	.	voice	.	39.47	E:5
=25	=25	=25	=25	=25	=25	=25	=25	=25	=25
4BB	Hey	1r	.	1Bm	newline	voice	.	41.093	B:5
8D	li-	.	.	.	.	.	.	.	.
8D	-ttle	.	.	.	.	.	.	.	.
4F#	sis-	.	.	.	.	.	.	.	.
8F#	-ter	.	.	.	.	.	.	.	.
[8A	who's	.	.	.	.	.	.	.	.
=26	=26	=26	=26	=26	=26	=26	=26	=26	=26
8A]	_	1r	.	1Bm	.	voice	.	42.709	B:5
4F#	your	.	.	.	.	.	.	.	.
4E	su-	.	.	.	.	.	.	.	.
8F#	-per-	.	.	.	.	.	.	.	.
4F#	-man?.	.	.	.	.	.	.	.	.
=27	=27	=27	=27	=27	=27	=27	=27	=27	=27
4BB	Hey	1r	.	1AM	.	voice	.	44.325	A:5
8D	li-	.	.	.	.	.	.	.	.
8D	-ttle	.	.	.	.	.	.	.	.
4F#	sis-	.	.	.	.	.	.	.	.
8F#	-ter	.	.	.	.	.	.	.	.
[8A	who's	.	.	.	.	.	.	.	.
=28	=28	=28	=28	=28	=28	=28	=28	=28	=28
8A]	_	1r	.	1AM	.	voice	.	45.94	A:5
4F#	the	.	.	.	.	.	.	.	.
4E	one	.	.	.	.	.	.	.	.
8F#	we	.	.	.	.	.	.	.	.
4BB	want?.	.	.	.	.	.	A	.	.
=29	=29	=29	=29	=29	=29	=29	=29	=29	=29
4BB	Hey	1r	.	1Bm	newline	voice	.	47.556	B:5
8D	li-	.	.	.	.	.	.	.	.
8D	-ttle	.	.	.	.	.	.	.	.
4F#	sis-	.	.	.	.	.	.	.	.
8F#	-ter	.	.	.	.	.	.	.	.
[8A	shot-	.	.	.	.	.	.	.	.
=30	=30	=30	=30	=30	=30	=30	=30	=30	=30
8A]	_	1r	.	1Bm	.	voice	.	49.194	B:5
8F#	-gun.	.	.	.	.	.	A	.	.
2r	.	.	.	.	.	.	.	.	.
8BB	It's	.	.	.	.	.	.	.	.
8BB	a	.	.	.	.	.	.	.	.
=31	=31	=31	=31	=31	=31	=31	=31	=31	=31
4r	.	1r	.	1AM	.	voice	.	50.833	A:maj
4D	nice	.	.	.	.	.	.	.	.
4D	day	.	.	.	.	.	.	.	.
4BB	to	.	.	.	.	.	.	.	.
=32	=32	=32	=32	=32	=32	=32	=32	=32	=32
4r	.	1r	.	1EM	.	voice	.	52.471	E:maj
8r	.	.	.	.	.	.	.	.	.
4A	start	.	.	.	.	.	.	.	.
8F#	a-	.	.	.	.	.	.	.	.
8E	-gain.	.	.	.	.	.	.	.	.
[8F#	_	.	.	.	.	.	.	.	.
=33	=33	=33	=33	=33	=33	=33	=33	=33	=33
4F#]	_	1r	.	1Bm	newline	voice	.	54.109	B:min
2r	.	.	.	.	.	.	.	.	.
4r	.	.	.	.	.	.	.	.	.
=34	=34	=34	=34	=34	=34	=34	=34	=34	=34
2r	.	1r	.	1Bm	.	voice	.	55.721	B:min
4r	.	.	.	.	.	.	.	.	.
8D	It's	.	.	.	.	.	.	.	.
8BB	a	.	.	.	.	.	.	.	.
=35	=35	=35	=35	=35	=35	=35	=35	=35	=35
4r	.	1r	.	1EM	.	voice	.	57.334	E:maj
4D	nice	.	.	.	.	.	.	.	.
4D	day	.	.	.	.	.	.	.	.
8BB	for	.	.	.	.	.	.	.	.
8BB	a	.	.	.	.	.	.	.	.
=36	=36	=36	=36	=36	=36	=36	=36	=36	=36
4r	.	1r	.	1DM	.	voice	.	58.947	D:maj
4D	white	.	.	.	.	.	.	.	.
8D	wed-	.	.	.	.	.	.	.	.
[4.D	-ding.	.	.	.	.	.	.	.	.
=37	=37	=37	=37	=37	=37	=37	=37	=37	=37
2D]	_	1r	.	1Bm	newline	voice	.	60.559	B:min
2r	.	.	.	.	.	.	.	.	.
=38	=38	=38	=38	=38	=38	=38	=38	=38	=38
2r	.	1r	.	1Bm	.	voice	.	62.212	B:min
4r	.	.	.	.	.	.	.	.	.
8D	It's	.	.	.	.	.	.	.	.
8BB	a	.	.	.	.	.	.	.	.
=39	=39	=39	=39	=39	=39	=39	=39	=39	=39
4r	.	1r	.	1EM	.	voice	.	63.864	E:maj
4D	nice	.	.	.	.	.	.	.	.
4D#	day	.	.	.	.	.	.	.	.
4BB	to	.	.	.	.	.	.	.	.
=40	=40	=40	=40	=40	=40	=40	=40	=40	=40
4r	.	1r	.	1DM	.	voice	.	65.516	D:maj
8r	.	.	.	.	.	.	.	.	.
4A	start	.	.	.	.	.	.	.	.
8F#	a-	.	.	.	.	.	.	.	.
8E	-gain.	.	.	.	.	.	.	.	.
[8F#	_	.	.	.	.	.	.	.	.
=41	=41	=41	=41	=41	=41	=41	=41	=41	=41
2.F#]	_	1r	.	1Bm	newline	voice	.	67.169	B:min
4r	.	.	.	.	.	.	.	.	.
=42	=42	=42	=42	=42	=42	=42	=42	=42	=42
1r	.	1r	.	1Bm	.	voice	.	68.786	B:min
=43	=43	=43	=43	=43	=43	=43	=43	=43	=43
*>Letter>A	*>Letter>A	*>Letter>A	*>Letter>A	*>Letter>A	*>Letter>A	*>Letter>A	*>Letter>A	*>Letter>A	*>Letter>A
*>Label>Verse	*>Label>Verse	*>Label>Verse	*>Label>Verse	*>Label>Verse	*>Label>Verse	*>Label>Verse	*>Label>Verse	*>Label>Verse	*>Label>Verse
4BB	Hey	1r	.	1Bm	newline	voice	.	70.402	B:min
8D	li-	.	.	.	.	.	.	.	.
8D	-ttle	.	.	.	.	.	.	.	.
4F#	sis-	.	.	.	.	.	B	.	.
8F#	-ter	.	.	.	.	.	.	.	.
[8BB	who	.	.	.	.	.	.	.	.
=44	=44	=44	=44	=44	=44	=44	=44	=44	=44
8BB]	_	1A	Ooh.	1Bm	.	voice	.	72.025	B:min
4D	is	.	.	.	.	.	.	.	.
8D	it	.	.	.	.	.	.	.	.
4F#	you're	.	.	.	.	.	.	.	.
8E	with	.	.	.	.	.	.	.	.
[8D	with?.	.	.	.	.	.	B	.	.
=45	=45	=45	=45	=45	=45	=45	=45	=45	=45
4D]	_	1G#	_	1AM	.	voice	.	73.647	A:maj
2r	.	.	.	.	.	.	.	.	.
4r	.	.	.	.	.	.	.	.	.
=46	=46	=46	=46	=46	=46	=46	=46	=46	=46
1r	.	2F#	_	1EM	.	voice	.	75.269	E:maj
.	.	2r	.	.	.	.	.	.	.
=47	=47	=47	=47	=47	=47	=47	=47	=47	=47
4BB	Hey	1r	.	1Bm	newline	voice	.	76.892	B:min
8D	li-	.	.	.	.	.	.	.	.
8D	-ttle	.	.	.	.	.	.	.	.
4F#	sis-	.	.	.	.	.	B	.	.
8F#	-ter	.	.	.	.	.	.	.	.
[8A	what's	.	.	.	.	.	.	.	.
=48	=48	=48	=48	=48	=48	=48	=48	=48	=48
8A]	_	2..A	Ooh.	1Bm	.	voice	.	78.525	B:min
4F#	your	.	.	.	.	.	.	.	.
4E	vice	.	.	.	.	.	.	.	.
8F#	or	.	.	.	.	.	.	.	.
[4F#	wish?.	.	.	.	.	.	B	.	.
.	.	16G#	_	.	.	.	.	.	.
.	.	16A	_	.	.	.	.	.	.
=49	=49	=49	=49	=49	=49	=49	=49	=49	=49
4F#]	_	2..G#	_	1AM	.	voice	.	80.159	A:maj
2r	.	.	.	.	.	.	.	.	.
4r	.	.	.	.	.	.	.	.	.
.	.	16F#	_	.	.	.	.	.	.
.	.	16G#	_	.	.	.	.	.	.
=50	=50	=50	=50	=50	=50	=50	=50	=50	=50
1r	.	2F#	_	1EM	.	voice	.	81.792	E:maj
.	.	2r	.	.	.	.	.	.	.
=51	=51	=51	=51	=51	=51	=51	=51	=51	=51
4BB	Hey	1r	.	1Bm	newline	voice	.	83.426	B:min
8D	li-	.	.	.	.	.	.	.	.
8D	-ttle	.	.	.	.	.	.	.	.
4F#	sis-	.	.	.	.	.	.	.	.
8F#	-ter	.	.	.	.	.	.	.	.
[8A	shot-	.	.	.	.	.	.	.	.
=52	=52	=52	=52	=52	=52	=52	=52	=52	=52
8A]	_	1r	.	1Bm	.	voice	.	85.052	B:min
4F#	-gun.	.	.	.	.	.	.	.	.
4E	oh	.	.	.	.	.	.	.	.
8F#	_	.	.	.	.	.	.	.	.
4F#	yeah.	.	.	.	.	.	.	.	.
=53	=53	=53	=53	=53	=53	=53	=53	=53	=53
4BB	Hey	1r	.	1AM	.	voice	.	86.678	A:maj
8D	li-	.	.	.	.	.	.	.	.
8D	-ttle	.	.	.	.	.	.	.	.
4F#	sis-	.	.	.	.	.	.	.	.
8F#	-ter	.	.	.	.	.	.	.	.
[8A	who's	.	.	.	.	.	.	.	.
=54	=54	=54	=54	=54	=54	=54	=54	=54	=54
8A]	_	1r	.	1AM	.	voice	.	88.305	A:maj
4F#	your	.	.	.	.	.	.	.	.
4E	su-	.	.	.	.	.	.	.	.
8F#	-per-	.	.	.	.	.	.	.	.
4F#	-man?.	.	.	.	.	.	.	.	.
=55	=55	=55	=55	=55	=55	=55	=55	=55	=55
4BB	Hey	1r	.	1Bm	newline	voice	.	89.931	B:min
8D	li-	.	.	.	.	.	.	.	.
8D	-ttle	.	.	.	.	.	.	.	.
4F#	sis-	.	.	.	.	.	.	.	.
8F#	-ter	.	.	.	.	.	.	.	.
[8A	shot-	.	.	.	.	.	.	.	.
=56	=56	=56	=56	=56	=56	=56	=56	=56	=56
8A]	_	1r	.	1Bm	.	voice	.	91.554	B:min
8F#	-gun.	.	.	.	.	.	.	.	.
2r	.	.	.	.	.	.	.	.	.
8BB	It's	.	.	.	.	.	.	.	.
8BB	a	.	.	.	.	.	.	.	.
=57	=57	=57	=57	=57	=57	=57	=57	=57	=57
4r	.	1r	.	1AM	.	voice	.	93.176	A:maj
4D	nice	.	.	.	.	.	.	.	.
4D	day	.	.	.	.	.	.	.	.
[4BB	to	.	.	.	.	.	.	.	.
=58	=58	=58	=58	=58	=58	=58	=58	=58	=58
4BB]	_	1r	.	1EM	.	voice	.	94.798	E:maj
8r	.	.	.	.	.	.	.	.	.
4A	start	.	.	.	.	.	.	.	.
8F#	a-	.	.	.	.	.	.	.	.
8E	-gain.	.	.	.	.	.	.	.	.
[8F#	_	.	.	.	.	.	.	.	.
=59	=59	=59	=59	=59	=59	=59	=59	=59	=59
4F#]	_	1r	.	1Bm	newline	voice	.	96.421	B:min
2r	.	.	.	.	.	.	.	.	.
4r	.	.	.	.	.	.	.	.	.
=60	=60	=60	=60	=60	=60	=60	=60	=60	=60
2r	.	1r	.	1Bm	.	voice	.	98.058	B:min
4r	.	.	.	.	.	.	.	.	.
8D	It's	.	.	.	.	.	.	.	.
8BB	a	.	.	.	.	.	.	.	.
=61	=61	=61	=61	=61	=61	=61	=61	=61	=61
4r	.	1r	.	1EM	.	voice	.	99.696	E:maj
4D	nice	.	.	.	.	.	.	.	.
4D	day	.	.	.	.	.	.	.	.
8BB	for	.	.	.	.	.	.	.	.
8BB	a	.	.	.	.	.	.	.	.
=62	=62	=62	=62	=62	=62	=62	=62	=62	=62
4r	.	1r	.	1DM	.	voice	.	101.333	D:maj
4D	white	.	.	.	.	.	.	.	.
8D	wed-	.	.	.	.	.	.	.	.
[4.D	-ding.	.	.	.	.	.	.	.	.
=63	=63	=63	=63	=63	=63	=63	=63	=63	=63
2D]	_	1r	.	1Bm	newline	voice	.	102.971	B:min
2r	.	.	.	.	.	.	.	.	.
=64	=64	=64	=64	=64	=64	=64	=64	=64	=64
2r	.	1r	.	1Bm	.	voice	.	104.599	B:min
4r	.	.	.	.	.	.	.	.	.
8D	It's	.	.	.	.	.	.	.	.
8BB	a	.	.	.	.	.	.	.	.
=65	=65	=65	=65	=65	=65	=65	=65	=65	=65
4r	.	1r	.	1EM	.	voice	.	106.228	E:maj
4D	nice	.	.	.	.	.	.	.	.
4D	day	.	.	.	.	.	.	.	.
4BB	to	.	.	.	.	.	.	.	.
=66	=66	=66	=66	=66	=66	=66	=66	=66	=66
4r	.	1r	.	1DM	.	voice	.	107.856	D:maj
8r	.	.	.	.	.	.	.	.	.
4f#	start	.	.	.	.	.	.	.	.
8f#	a-	.	.	.	.	.	.	.	.
8e	-gain.	.	.	.	.	.	.	.	.
[8f#	_	.	.	.	.	.	.	.	.
=67	=67	=67	=67	=67	=67	=67	=67	=67	=67
1f#]	_	1r	.	1Bm	newline	voice	.	109.485	B:min
=68	=68	=68	=68	=68	=68	=68	=68	=68	=68
[2B	_	1r	.	1Bm	.	voice	.	111.109	B:min
8B]	_	.	.	.	.	.	.	.	.
4.B	ow!.	.	.	.	.	.	.	.	.
=69	=69	=69	=69	=69	=69	=69	=69	=69	=69
1r	.	1r	.	1Bm	.	voice	.	112.733	B:min
=70	=70	=70	=70	=70	=70	=70	=70	=70	=70
1r	.	1r	.	1Bm	.	voice	.	114.358	B:min
=71	=71	=71	=71	=71	=71	=71	=71	=71	=71
*>Letter>A2	*>Letter>A2	*>Letter>A2	*>Letter>A2	*>Letter>A2	*>Letter>A2	*>Letter>A2	*>Letter>A2	*>Letter>A2	*>Letter>A2
*>Label>Interlude	*>Label>Interlude	*>Label>Interlude	*>Label>Interlude	*>Label>Interlude	*>Label>Interlude	*>Label>Interlude	*>Label>Interlude	*>Label>Interlude	*>Label>Interlude
1r	.	1r	.	1Bm	newline	guitar	.	115.982	B:min
=72	=72	=72	=72	=72	=72	=72	=72	=72	=72
1r	.	1r	.	1Bm	.	guitar	.	117.604	B:min
=73	=73	=73	=73	=73	=73	=73	=73	=73	=73
1r	.	1r	.	1EM	.	guitar	.	119.227	E:maj
=74	=74	=74	=74	=74	=74	=74	=74	=74	=74
1r	.	1r	.	1DM	.	guitar	.	120.849	D:maj
=75	=75	=75	=75	=75	=75	=75	=75	=75	=75
1r	.	1r	.	1Bm	newline	guitar	.	122.471	B:min
=76	=76	=76	=76	=76	=76	=76	=76	=76	=76
1r	.	1r	.	1Bm	.	guitar	.	124.094	B:min
=77	=77	=77	=77	=77	=77	=77	=77	=77	=77
1r	.	1r	.	1DM	.	guitar	.	125.717	D:maj
=78	=78	=78	=78	=78	=78	=78	=78	=78	=78
1r	.	1r	.	1EM	.	guitar	.	127.34	E:maj
=79	=79	=79	=79	=79	=79	=79	=79	=79	=79
1r	.	1r	.	1Bm	newline	guitar	.	128.963	B:min
=80	=80	=80	=80	=80	=80	=80	=80	=80	=80
1r	.	1r	.	1Bm	.	guitar	.	130.606	B:min
=81	=81	=81	=81	=81	=81	=81	=81	=81	=81
1r	.	1r	.	1Bm	.	guitar	.	132.249	B:min/4
=82	=82	=82	=82	=82	=82	=82	=82	=82	=82
1r	.	1r	.	1Bm	.	guitar	.	133.892	B:min/4
=83	=83	=83	=83	=83	=83	=83	=83	=83	=83
1r	.	1r	.	1Bm	newline	guitar	.	135.535	B:min
=84	=84	=84	=84	=84	=84	=84	=84	=84	=84
1r	.	1r	.	1Bm	.	guitar	.	137.164	B:min
=85	=85	=85	=85	=85	=85	=85	=85	=85	=85
1r	.	1r	.	1DM	.	guitar	.	138.792	D:maj
=86	=86	=86	=86	=86	=86	=86	=86	=86	=86
1r	.	1r	.	1EM	.	guitar	.	140.42	E:maj
=87	=87	=87	=87	=87	=87	=87	=87	=87	=87
1r	.	1r	.	1Bmm	newline	guitar	.	142.049	B:min9
=88	=88	=88	=88	=88	=88	=88	=88	=88	=88
2r	.	1r	.	1Bmm	.	guitar	.	143.673	B:min9
8r	.	.	.	.	.	.	.	.	.
16~F#	Pick	.	.	.	.	.	.	.	.
16~F#	it	.	.	.	.	.	.	.	.
4~BB	up!.	.	.	.	.	.	.	.	.
=89	=89	=89	=89	=89	=89	=89	=89	=89	=89
2r	.	1r	.	1AM	.	guitar	.	145.298	A:maj
4r	.	.	.	.	.	.	.	.	.
8r	.	.	.	.	.	.	.	.	.
[8d	Take	.	.	.	.	.	.	.	.
=90	=90	=90	=90	=90	=90	=90	=90	=90	=90
8d]	_	1r	.	1EM	.	guitar	.	146.922	E:maj
8B	my	.	.	.	.	.	.	.	.
4B	back	.	.	.	.	.	.	.	.
4B	home	.	.	.	.	.	.	.	.
4d	yeah.	.	.	.	.	.	.	.	.
=91	=91	=91	=91	=91	=91	=91	=91	=91	=91
1r	.	1r	.	1Bm	newline	guitar	.	148.547	B:min
=92	=92	=92	=92	=92	=92	=92	=92	=92	=92
1r	.	1r	.	1Bm	.	guitar	.	150.178	B:min
=93	=93	=93	=93	=93	=93	=93	=93	=93	=93
*>Letter>B	*>Letter>B	*>Letter>B	*>Letter>B	*>Letter>B	*>Letter>B	*>Letter>B	*>Letter>B	*>Letter>B	*>Letter>B
*>Label>Verse	*>Label>Verse	*>Label>Verse	*>Label>Verse	*>Label>Verse	*>Label>Verse	*>Label>Verse	*>Label>Verse	*>Label>Verse	*>Label>Verse
4BB	Hey	1r	.	1Bm	newline	voice	.	151.81	B:min
8D	li-	.	.	.	.	.	.	.	.
8D	-ttle	.	.	.	.	.	.	.	.
4F#	sis-	.	.	.	.	.	.	.	.
8F#	-ter	.	.	.	.	.	.	.	.
[8BB	what	.	.	.	.	.	.	.	.
=94	=94	=94	=94	=94	=94	=94	=94	=94	=94
8BB]	_	1A	Ooh.	1Bm	.	voice	.	153.441	B:min
4D	have	.	.	.	.	.	.	.	.
4F#	you	.	.	.	.	.	.	.	.
4E	done?.	.	.	.	.	.	.	.	.
[8D	_	.	.	.	.	.	.	.	.
=95	=95	=95	=95	=95	=95	=95	=95	=95	=95
2D]	_	1G#	_	1AM	.	voice	.	155.073	A:maj
2r	.	.	.	.	.	.	.	.	.
=96	=96	=96	=96	=96	=96	=96	=96	=96	=96
1r	.	2F#	_	1EM	.	voice	.	156.705	E:maj
.	.	2r	.	.	.	.	.	.	.
=97	=97	=97	=97	=97	=97	=97	=97	=97	=97
4BB	Hey	2r	.	1Bm	newline	voice	.	158.337	B:min
8D	li-	.	.	.	.	.	.	.	.
8D	-ttle	.	.	.	.	.	.	.	.
4F#	sis-	4r	.	.	.	.	.	.	.
8F#	-ter	8r	.	.	.	.	.	.	.
[8A	who's	[8A	On-	.	.	.	.	.	.
=98	=98	=98	=98	=98	=98	=98	=98	=98	=98
8A]	_	8A]	_	1Bm	.	voice	.	159.975	B:min
4F#	the	4F#	-ly	.	.	.	.	.	.
4E	on-	4A	on-	.	.	.	.	.	.
8F#	-ly	4F#	-ly	.	.	.	.	.	.
[4F#	one?.	.	.	.	.	.	.	.	.
.	.	[8A	on-	.	.	.	.	.	.
=99	=99	=99	=99	=99	=99	=99	=99	=99	=99
4F#]	_	8A]	_	1AM	.	voice	.	161.612	A:maj
.	.	4F#	-ly	.	.	.	.	.	.
2r	.	.	.	.	.	.	.	.	.
.	.	4A	on-	.	.	.	.	.	.
.	.	8F#	-ly	.	.	.	.	.	.
4r	.	[4F#	one.	.	.	.	.	.	.
=100	=100	=100	=100	=100	=100	=100	=100	=100	=100
1r	.	2F#]	_	1EM	.	voice	.	163.25	E:maj
.	.	2r	.	.	.	.	.	.	.
=101	=101	=101	=101	=101	=101	=101	=101	=101	=101
4BB	I've	4r	.	1Bm	newline	voice	.	164.887	B:min
8D	been	8r	.	.	.	.	.	.	.
8D	a-	4A	So	.	.	.	.	.	.
4F#	-way	.	.	.	.	.	.	.	.
.	.	4.F#	long.	.	.	.	.	.	.
8F#	for	.	.	.	.	.	.	.	.
[8A	so	.	.	.	.	.	.	.	.
=102	=102	=102	=102	=102	=102	=102	=102	=102	=102
8A]	_	1r	.	1Bm	.	voice	.	166.5	B:min
4F#	long.	.	.	.	.	.	.	.	.
2r	.	.	.	.	.	.	.	.	.
8r	.	.	.	.	.	.	.	.	.
=103	=103	=103	=103	=103	=103	=103	=103	=103	=103
4BB	I've	4r	.	1AM	.	voice	.	168.113	A:maj
8D	been	8r	.	.	.	.	.	.	.
8D	a-	4A	So	.	.	.	.	.	.
4F#	-way	.	.	.	.	.	.	.	.
.	.	4F#	long.	.	.	.	.	.	.
8F#	for	.	.	.	.	.	.	.	.
[8A	so	8E	_	.	.	.	.	.	.
=104	=104	=104	=104	=104	=104	=104	=104	=104	=104
8A]	_	1r	.	1AM	.	voice	.	169.726	A:maj
4F#	long.	.	.	.	.	.	.	.	.
2r	.	.	.	.	.	.	.	.	.
8r	.	.	.	.	.	.	.	.	.
=105	=105	=105	=105	=105	=105	=105	=105	=105	=105
4BB	I	1r	.	1Bm	newline	voice	.	171.338	B:min
8D	let	.	.	.	.	.	.	.	.
8D	you	.	.	.	.	.	.	.	.
4F#	go	.	.	.	.	.	.	.	.
8F#	for	.	.	.	.	.	.	.	.
[8A	so	.	.	.	.	.	.	.	.
=106	=106	=106	=106	=106	=106	=106	=106	=106	=106
8A]	_	1r	.	1Bm	.	voice	.	172.967	B:min
4F#	long.	.	.	.	.	.	.	.	.
4r	.	.	.	.	.	.	.	.	.
8r	.	.	.	.	.	.	.	.	.
8BB	It's	.	.	.	.	.	.	.	.
8BB	a	.	.	.	.	.	.	.	.
=107	=107	=107	=107	=107	=107	=107	=107	=107	=107
4r	.	1r	.	1AM	.	voice	.	174.595	A:maj
4D	nice	.	.	.	.	.	.	.	.
4D	day	.	.	.	.	.	.	.	.
4BB	to	.	.	.	.	.	.	.	.
=108	=108	=108	=108	=108	=108	=108	=108	=108	=108
4r	.	1r	.	1EM	.	voice	.	176.224	E:maj
8r	.	.	.	.	.	.	.	.	.
4A	start	.	.	.	.	.	.	.	.
8F#	a-	.	.	.	.	.	.	.	.
8E	-gain.	.	.	.	.	.	.	.	.
[8F#	_	.	.	.	.	.	.	.	.
=109	=109	=109	=109	=109	=109	=109	=109	=109	=109
4F#]	_	1r	.	1Bm	newline	voice	.	177.852	B:min
2r	.	.	.	.	.	.	.	.	.
4r	.	.	.	.	.	.	.	.	.
=110	=110	=110	=110	=110	=110	=110	=110	=110	=110
4r	.	1r	.	1Bm	.	voice	.	179.476	B:min
8D	Come	.	.	.	.	.	.	.	.
4.D	on!.	.	.	.	.	.	.	.	.
8BB	It's	.	.	.	.	.	.	.	.
8BB	a	.	.	.	.	.	.	.	.
=111	=111	=111	=111	=111	=111	=111	=111	=111	=111
4r	.	1r	.	1EM	.	voice	.	181.101	E:maj
4D	nice	.	.	.	.	.	.	.	.
4D	day	.	.	.	.	.	.	.	.
8BB	for	.	.	.	.	.	.	.	.
8BB	a	.	.	.	.	.	.	.	.
=112	=112	=112	=112	=112	=112	=112	=112	=112	=112
4r	.	1r	.	1DM	.	voice	.	182.725	D:maj
4D	white	.	.	.	.	.	.	.	.
8D	wed-	.	.	.	.	.	.	.	.
[4.D	-ding.	.	.	.	.	.	.	.	.
=113	=113	=113	=113	=113	=113	=113	=113	=113	=113
2D]	_	1r	.	1Bm	newline	voice	.	184.35	B:min
2r	.	.	.	.	.	.	.	.	.
=114	=114	=114	=114	=114	=114	=114	=114	=114	=114
2r	.	1r	.	1Bm	.	voice	.	185.989	B:min
4r	.	.	.	.	.	.	.	.	.
8D	It's	.	.	.	.	.	.	.	.
8BB	a	.	.	.	.	.	.	.	.
=115	=115	=115	=115	=115	=115	=115	=115	=115	=115
4r	.	1r	.	1EM	.	voice	.	187.628	E:maj
4D	nice	.	.	.	.	.	.	.	.
4D	day	.	.	.	.	.	.	.	.
4BB	to	.	.	.	.	.	.	.	.
=116	=116	=116	=116	=116	=116	=116	=116	=116	=116
4r	.	1r	.	1DM	.	voice	.	189.268	D:maj
8r	.	.	.	.	.	.	.	.	.
4f#	start	.	.	.	.	.	.	.	.
8f#	a-	.	.	.	.	.	.	.	.
8e	-gain.	.	.	.	.	.	.	.	.
[8f#	_	.	.	.	.	.	.	.	.
=117	=117	=117	=117	=117	=117	=117	=117	=117	=117
1f#]	_	1r	.	1Bm	newline	voice	.	190.907	B:min
=118	=118	=118	=118	=118	=118	=118	=118	=118	=118
[2B	_	1r	.	1Bm	.	voice	.	192.534	B:min
8B]	_	.	.	.	.	.	.	.	.
4.B	ow!.	.	.	.	.	.	.	.	.
=119	=119	=119	=119	=119	=119	=119	=119	=119	=119
1r	.	1r	.	1Bm	.	voice	.	194.161	B:min
=120	=120	=120	=120	=120	=120	=120	=120	=120	=120
2r	.	1r	.	1Bm	.	voice	.	195.787	B:min
4r	.	.	.	.	.	.	.	.	.
8BB	There	.	.	.	.	.	.	.	.
8D	is	.	.	.	.	.	.	.	.
=121	=121	=121	=121	=121	=121	=121	=121	=121	=121
*>Letter>C	*>Letter>C	*>Letter>C	*>Letter>C	*>Letter>C	*>Letter>C	*>Letter>C	*>Letter>C	*>Letter>C	*>Letter>C
*>Label>Verse	*>Label>Verse	*>Label>Verse	*>Label>Verse	*>Label>Verse	*>Label>Verse	*>Label>Verse	*>Label>Verse	*>Label>Verse	*>Label>Verse
8F#	no-	1r	.	1Bm	newline	voice	.	197.414	B:min
4F#	-thing	.	.	.	.	.	.	.	.
4F#	fair	.	.	.	.	.	.	.	.
8E	in	.	.	.	.	.	.	.	.
4D	this	.	.	.	.	.	.	.	.
=122	=122	=122	=122	=122	=122	=122	=122	=122	=122
8BB	world	1r	.	1Bm	.	voice	.	199.034	B:min
4.AA	_	.	.	.	.	.	.	.	.
8AA	World.	.	.	.	.	.	.	.	.
4.BB	_	.	.	.	.	.	.	.	.
=123	=123	=123	=123	=123	=123	=123	=123	=123	=123
1r	.	1r	.	1Bm	.	voice	.	200.654	B:min
=124	=124	=124	=124	=124	=124	=124	=124	=124	=124
2r	.	1r	.	1Bm	.	voice	.	202.275	B:min
4r	.	.	.	.	.	.	.	.	.
8BB	There	.	.	.	.	.	.	.	.
8D	is	.	.	.	.	.	.	.	.
=125	=125	=125	=125	=125	=125	=125	=125	=125	=125
8F#	no-	1r	.	1Bm	newline	voice	.	203.895	B:min
4F#	-thing	.	.	.	.	.	.	.	.
4F#	safe	.	.	.	.	.	.	.	.
4E	in	.	.	.	.	.	.	.	.
[8A	this	.	.	.	.	.	.	.	.
=126	=126	=126	=126	=126	=126	=126	=126	=126	=126
4A]	_	1r	.	1Bm	.	voice	.	205.527	B:min
8F#	world.	.	.	.	.	.	.	.	.
[4.E	_	.	.	.	.	.	.	.	.
4E]	_	.	.	.	.	.	.	.	.
=127	=127	=127	=127	=127	=127	=127	=127	=127	=127
1r	.	1r	.	1Bm	.	voice	.	207.16	B:min
=128	=128	=128	=128	=128	=128	=128	=128	=128	=128
2r	.	1r	.	1Bm	.	voice	.	208.792	B:min
8r	.	.	.	.	.	.	.	.	.
8.F#	And	.	.	.	.	.	.	.	.
8.F#	there's	.	.	.	.	.	.	.	.
=129	=129	=129	=129	=129	=129	=129	=129	=129	=129
8A	no-	1r	.	1Bm	newline	voice	.	210.424	B:min
4F#	-thing	.	.	.	.	.	.	.	.
4A	sure	.	.	.	.	.	.	.	.
8F#	in	.	.	.	.	.	.	.	.
4A	this	.	.	.	.	.	.	.	.
=130	=130	=130	=130	=130	=130	=130	=130	=130	=130
8F#	world.	1r	.	1Bm	.	voice	.	212.056	B:min
4E	_	.	.	.	.	.	.	.	.
4r	.	.	.	.	.	.	.	.	.
8F#	And	.	.	.	.	.	.	.	.
4F#	there's	.	.	.	.	.	.	.	.
=131	=131	=131	=131	=131	=131	=131	=131	=131	=131
8A	no-	1r	.	1Bm	.	voice	.	213.687	B:min
4F#	-thing	.	.	.	.	.	.	.	.
4A	pure	.	.	.	.	.	.	.	.
8F#	in	.	.	.	.	.	.	.	.
4A	this	.	.	.	.	.	.	.	.
=132	=132	=132	=132	=132	=132	=132	=132	=132	=132
8F#	world.	1r	.	1Bm	.	voice	.	215.319	B:min
4E	_	.	.	.	.	.	.	.	.
8r	.	.	.	.	.	.	.	.	.
16r	.	.	.	.	.	.	.	.	.
16F#	and	.	.	.	.	.	.	.	.
4F#	if	.	.	.	.	.	.	.	.
8F#	there's	.	.	.	.	.	.	.	.
=133	=133	=133	=133	=133	=133	=133	=133	=133	=133
8A	some-	1r	.	1Bm	newline	voice	.	216.951	B:min
4F#	-thing	.	.	.	.	.	.	.	.
4A	left	.	.	.	.	.	.	.	.
8F#	in	.	.	.	.	.	.	.	.
4A	this	.	.	.	.	.	.	.	.
=134	=134	=134	=134	=134	=134	=134	=134	=134	=134
2B	world.	1r	.	1Bm	.	voice	.	218.586	B:min
4.d	_	.	.	.	.	.	.	.	.
[8B	_	.	.	.	.	.	.	.	.
=135	=135	=135	=135	=135	=135	=135	=135	=135	=135
2B]	_	1r	.	1EM	.	voice	.	220.222	E:maj
2r	.	.	.	.	.	.	.	.	.
=136	=136	=136	=136	=136	=136	=136	=136	=136	=136
4r	.	1r	.	1DM	.	voice	.	221.857	D:maj
8r	.	.	.	.	.	.	.	.	.
4f#	start	.	.	.	.	.	.	.	.
8f#	a-	.	.	.	.	.	.	.	.
8e	-gain.	.	.	.	.	.	.	.	.
[8f#	_	.	.	.	.	.	.	.	.
=137	=137	=137	=137	=137	=137	=137	=137	=137	=137
1f#]	_	1r	.	1Bm	newline	voice	.	223.493	B:min
=138	=138	=138	=138	=138	=138	=138	=138	=138	=138
4B	_	1r	.	1Bm	.	voice	.	225.12	B:min
8d	Come	.	.	.	.	.	.	.	.
4.d	on!.	.	.	.	.	.	.	.	.
8B	It's	.	.	.	.	.	.	.	.
[8B	a	.	.	.	.	.	.	.	.
=139	=139	=139	=139	=139	=139	=139	=139	=139	=139
4B]	_	1r	.	1DM	.	voice	.	226.747	D:maj
4d	nice	.	.	.	.	.	.	.	.
4d	day	.	.	.	.	.	.	.	.
8B	for	.	.	.	.	.	.	.	.
8B	a	.	.	.	.	.	.	.	.
=140	=140	=140	=140	=140	=140	=140	=140	=140	=140
4r	.	1r	.	1EM	.	voice	.	228.374	E:maj
4D	white	.	.	.	.	.	.	.	.
8D	wed-	.	.	.	.	.	.	.	.
[4.D	-ding	.	.	.	.	.	.	.	.
=141	=141	=141	=141	=141	=141	=141	=141	=141	=141
4.D]	_	1r	.	1Bm	newline	voice	.	230.001	B:min
8BB	uh.	.	.	.	.	.	.	.	.
4r	.	.	.	.	.	.	.	.	.
8r	.	.	.	.	.	.	.	.	.
[8b	Wooh.	.	.	.	.	.	.	.	.
=142	=142	=142	=142	=142	=142	=142	=142	=142	=142
2b]	_	1r	.	1Bm	.	voice	.	231.631	B:min
4B	_	.	.	.	.	.	.	.	.
8B	It's	.	.	.	.	.	.	.	.
8B	a	.	.	.	.	.	.	.	.
=143	=143	=143	=143	=143	=143	=143	=143	=143	=143
4r	.	1r	.	1EM	.	voice	.	233.261	E:maj
4D	nice	.	.	.	.	.	.	.	.
4D#	day	.	.	.	.	.	.	.	.
4BB	to	.	.	.	.	.	.	.	.
=144	=144	=144	=144	=144	=144	=144	=144	=144	=144
4r	.	1r	.	1DM	.	voice	.	234.891	D:maj
8r	.	.	.	.	.	.	.	.	.
4f#	start	.	.	.	.	.	.	.	.
8f#	a-	.	.	.	.	.	.	.	.
8e	-gain.	.	.	.	.	.	.	.	.
[8f#	_	.	.	.	.	.	.	.	.
=145	=145	=145	=145	=145	=145	=145	=145	=145	=145
*>Label>>Fadeout	*>Label>>Fadeout	*>Label>>Fadeout	*>Label>>Fadeout	*>Label>>Fadeout	*>Label>>Fadeout	*>Label>>Fadeout	*>Label>>Fadeout	*>Label>>Fadeout	*>Label>>Fadeout
1f#]	_	1r	.	1Bm	newline	voice	.	236.521	B:min
=146	=146	=146	=146	=146	=146	=146	=146	=146	=146
2.B	_	1r	.	1Bm	.	voice	.	238.148	B:min
8d	It's	.	.	.	.	.	.	.	.
8B	a	.	.	.	.	.	.	.	.
=147	=147	=147	=147	=147	=147	=147	=147	=147	=147
4r	.	1r	.	1EM	.	voice	.	239.775	E:maj
4d	nice	.	.	.	.	.	.	.	.
4d#	day	.	.	.	.	.	.	.	.
4B	to	.	.	.	.	.	.	.	.
=148	=148	=148	=148	=148	=148	=148	=148	=148	=148
4r	.	1r	.	1DM	.	voice	.	241.402	D:maj
8r	.	.	.	.	.	.	.	.	.
4f#	start	.	.	.	.	.	.	.	.
8f#	a-	.	.	.	.	.	.	.	.
8e	-gain.	.	.	.	.	.	.	.	.
[8f#	_	.	.	.	.	.	.	.	.
=149	=149	=149	=149	=149	=149	=149	=149	=149	=149
1f#]	_	1r	.	1Bm	newline	voice	.	243.03	B:min
=150	=150	=150	=150	=150	=150	=150	=150	=150	=150
2.B	_	1r	.	1Bm	.	voice	.	244.613	B:min
8d	It's	.	.	.	.	.	.	.	.
8B	a	.	.	.	.	.	.	.	.
=151	=151	=151	=151	=151	=151	=151	=151	=151	=151
4r	.	1r	.	1EM	.	voice	.	246.196	E:maj
4d	nice	.	.	.	.	.	.	.	.
4d#	day	.	.	.	.	.	.	.	.
4B	to	.	.	.	.	.	.	.	.
=152	=152	=152	=152	=152	=152	=152	=152	=152	=152
4r	.	1r	.	1DM	.	voice	.	247.779	D:maj
8r	.	.	.	.	.	.	.	.	.
4f#	start	.	.	.	.	.	.	.	.
8f#	a-	.	.	.	.	.	.	.	.
8e	-gain.	.	.	.	.	.	.	.	.
8f#	_	.	.	.	.	.	.	.	.
r;	.	r;	.	1r;	.	r	.	249.361	N.C.
r;	.	r;	.	1r;	.	r	.	253.382	N.C.
*-	*-	*-	*-	*-	*-	*-	*-	*-	*-
!!!BillboardChartDate: 1983/07/23, 1983/07/02
!!!BillboardPeak: 36, 36
!!!BillboardWeeksOnChart: 13, 13
!!!COC: Billy Idol
!!!ENC: Nathaniel Condit-Schultz
!!!EST: Awating manual error checking and editing.
!!!OTL: White Wedding
!!!RDF**chordsym: original McGill chord annotation + (implied pitch class set, with bass pitch in first position)
!!!RDF**harmony: **recip + pitch class of root + harmonic quality
!!!RDF**leadinstrument: original McGill primary instrumentation annotation
!!!RDF**phrase: newline = linebreak in original McGill transcription
!!!RDF**timestamp: McGill audio timestamp in seconds
!!!RDT: 2017/01/12/
!!!SampleActualRank: 55, 36
!!!SampleID#: 701, 1296
!!!SampleTargetRank: 54, 34
